X:1
T:James Gibb editions
T:Ave gratia plena - Verdonck
T:#
%%score [ 1 2 3 4 ]
L:1/8
Q:1/4=108
M:2/2
K:F
V:1 treble nm="Alto" snm="A"
V:2 treble-8 nm="Tenor I" snm="T I"
V:3 treble-8 nm="Tenor II" snm="T II"
V:4 bass nm="Bass" snm="B"
V:1
"^Cornelius Verdonck\n(1563-1625)""^Ave gratia plena" A8 | A4 B4- | B2 A2 A4 | G8 | G8 | %5
w: A-|ve gra\-|* ti- a|ple-|na,|
[M:2/2] z4 G4- | G2 E2 E4 | F8 | F2 F4 F2 | (F2 E2 D4) | E4 D2 E2 | (F3 G A2) B2 | (A3 G FE F2- | %13
w: Do\-|* mi- nus|te-|cum, be- ne-|di\- * *|cta tu in|mu\- * * li-|e\- * * * *|
 F2) (ED) !fermata!E4 || G6 ^F2 | G2 G2 B4 | =F6 _E2 | D2 C2 D4 | D2 B4 A2 | (A2 GF E2) D2 | %20
w: * ri\- * bus.|Be- ne-|di- cta tu|in- ter|mu- li- e-|res, in- ter|mu\- * * * li-|
 E4 ^F4 | G4 G4- | G2 E2 A4 | D4 A3 A | B2 G2 G4 | G2 (A3 G AB) | %26
w: e- res,|et be\-|* ne- di-|ctus fru- ctus|ven- tris tu-|i, fru\- * * *|
[Q:1/4=106] c2[Q:1/4=103] A4[Q:1/4=100] (G2- | %27
w: ctus ven- tris|
[Q:1/4=98] G2[Q:1/4=96] F3[Q:1/4=94] E/[Q:1/4=94]D/)[Q:1/4=92] E2 |[Q:1/4=92] F8 |] %29
w: * * * * tu-|i.|
V:2
 f8 | f4 f4- | f2 f2 f4 | (e4 d4) | e8 |[M:2/2][K:treble-8] z4 e4- | e2 c2 c4 | d8 | c2 c4 c2 | %9
w: A-|ve gra-|* ti- a|ple\- *|na,|Do\-|* mi- nus|te-|cum, be- ne-|
 d2 c2 =B4 | c4 =B2 c2 | (c3 _B AG F2- | FG AB c2) c2 | !fermata!c8 || d6 d2 | B2 _e2 d4 | d6 c2 | %17
w: di- cta tu|in mu- li-|e\- * * * *|* * * * * ri-|bus.|Be- ne-|di- cta tu|in- ter|
 A2 G2 A4 | =B2 d4 c2 | (f2 ed ^c2) d2- | d2 ^c2 d4 | =B4 =c2 d2 | c8 | =B4 c3 c | %24
w: mu- li- e-|res, in- ter|mu\- * * * li\-|* e- res,|et be- ne-|di-|ctus fru- ctus|
 d2 c (c2 =B/A/ B2) | c2 c2 F2 f2- | f2 e2 d4 | c8- | c8 |] %29
w: ven- tris tu\- * * *|i, fru- ctus ven\-|* tris tu-|i.||
V:3
 c8 | c4 (d4- | c2) c2 c2 (c2- | cG c3 =B/A/ B2) | c8 |[M:2/2][K:treble-8] z4 c4- | c2 G2 G4 | B8 | %8
w: A-|ve gra\-|* ti- a ple\-||na,|Do\-|* mi- nus|te-|
 A2 A4 A2 | B2 G2 G2 G2- | G2 G4 G2 | (A3 B c2 d2 | c3 B AG A2- | A2) (GF) !fermata!G4 || B6 A2 | %15
w: cum, be- ne-|di- cta tu in|* mu- li-|e\- * * *||* ri\- * bus.|Be- ne-|
 G2 c2 F4 | B6 G2 | ^F2 G4 F2 | G4 =F4- | F2 G2 A2 B2 | A4 D4 | D4 E2 D2 | (EF G3 ^F/E/ F2) | %23
w: di- cta tu|in- ter|mu- li- e-|res, in\-|* ter mu- li-|e- res,|et be- ne-|di\- * * * * *|
 G2 G2 C2 =F2- | F2 E2 D4 | C8 | z2 c2 F2 (B2- | B2 A2 G4) | F8 |] %29
w: ctus fru- ctus ven\-|* tris tu-|i,|ven- tris tu\-||i.|
V:4
 F,8 | F,4 B,4- | B,2 F,2 F,4 | (C,4 G,4) | C,8 |[M:2/2] z4 C,4- | C,2 C,2 C,4 | B,,8 | %8
w: A-|ve gra\-|* ti- a|ple\- *|na,|Do\-|* mi- nus|te-|
 F,,2 F,4 F,2 | B,,2 C,2 G,,4 | C,4 G,2 C,2 | (F,6 B,,2) | F,,8 | !fermata!C,8 || G,6 D,2 | %15
w: cum, be- ne-|di- cta tu|in mul- li-|e\- *|ri-|bus.|Be- ne-|
 _E,2 C,2 B,,4 | B,,6 C,2 | D,2 _E,2 D,4 | G,,4 z4 | z8 | z8 | G,,4 C,2 =B,,2 | %22
w: di- cta tu|in- ter|mu- li- e-|res,|||et be- ne-|
 (C,3 B,, A,,G,, A,,2) | G,,4 F,,3 F,, | B,,2 C,2 G,,4 | C,2 F,,4 F,,2 | A,,4 B,,4 | C,8 | F,,8 |] %29
w: di\- * * * *|ctus fru- ctus|ven- tris tu-|i, fru- ctus|ven- tris|tu-|i.|

